app/images/social/facebook-short.svg

<?xml version="1.0" encoding="UTF-8" standalone="no"?>
<svg width="21px" height="17px" viewBox="0 0 21 17" version="1.1" xmlns="http://www.w3.org/2000/svg" xmlns:xlink="http://www.w3.org/1999/xlink" xmlns:sketch="http://www.bohemiancoding.com/sketch/ns">
    <!-- Generator: Sketch Beta 3.3 (11970) - http://www.bohemiancoding.com/sketch -->
    <title>facebook-short</title>
    <desc>Created with Sketch Beta.</desc>
    <defs></defs>
    <g id="Art" stroke="none" stroke-width="1" fill="none" fill-rule="evenodd" sketch:type="MSPage">
        <g id="Artboard-2" sketch:type="MSArtboardGroup" transform="translate(-754.000000, -762.000000)" fill="#FFFFFF">
            <g id="facebook-short" sketch:type="MSLayerGroup" transform="translate(754.000000, 762.000000)">
                <path d="M15.9960742,7.98495948 C15.2973568,7.98495948 14.7936837,8.21404088 14.2831266,8.44752034 L14.2831266,13.728822 C14.772267,13.7754796 15.0525954,13.7754796 15.5168772,13.7754796 C17.1938755,13.7754796 17.4237218,13.0075406 17.4237218,11.9351796 L17.4237218,9.41260701 C17.4237218,8.62095677 17.1609857,7.98495948 15.9960742,7.98495948 L15.9960742,7.98495948 Z M5.57388269,16.5825874 L2.14817866,16.5825874 L2.14817866,8.2903376 L0.436187153,8.2903376 L0.436187153,5.43293904 L2.14817866,5.43293904 L2.14817866,3.71731433 C2.14817866,1.38615287 3.1144127,0 5.86033006,0 L8.14655485,0 L8.14655485,2.85797224 L6.71756873,2.85797224 C5.64845841,2.85797224 5.5780895,3.25723931 5.5780895,4.00261441 L5.57388265,5.43293908 L8.16261731,5.43293908 L7.85972503,8.29033764 L5.57388265,8.29033764 L5.57388265,16.5825874 L5.57388269,16.5825874 Z M20.8488522,11.9122332 C20.8488522,14.6130227 20.0770888,16.5825874 15.400998,16.5825874 C13.7125265,16.5825874 12.7220076,16.4342008 10.8583787,16.147371 L10.8583787,0.709616981 L14.2831266,0.138060763 L14.2831266,5.53810998 C15.0231475,5.26313582 15.9811591,5.12354527 16.8531217,5.12354527 C20.2782521,5.12354527 20.8488522,6.65904084 20.8488522,9.1265421 L20.8488522,11.9122332 L20.8488522,11.9122332 Z" id="Shape" sketch:type="MSShapeGroup"></path>
            </g>
        </g>
    </g>
</svg>

<svg width="21" height="17" viewBox="0 0 21 17" xmlns="http://www.w3.org/2000/svg"><path d="M15.996 7.985c-.7 0-1.202.23-1.713.463v5.28c.49.047.77.047 1.234.047 1.677 0 1.907-.767 1.907-1.84V9.413c0-.792-.263-1.428-1.428-1.428zM5.574 16.583H2.148V8.29H.436V5.433h1.712V3.717C2.148 1.387 3.114 0 5.86 0h2.287v2.858h-1.43c-1.07 0-1.14.4-1.14 1.145l-.003 1.43h2.59L7.86 8.29H5.574v8.293zm15.275-4.67c0 2.7-.773 4.67-5.45 4.67-1.687 0-2.678-.15-4.542-.436V.71l3.425-.572v5.4c.74-.275 1.698-.414 2.57-.414 3.425 0 3.996 1.535 3.996 4.003v2.785z" fill="#FFF" fill-rule="evenodd"/></svg>
